build/img/icon/yandex.svg

<svg width="44.000000" height="44.000000" viewBox="0 0 44 44" fill="none" xmlns="http://www.w3.org/2000/svg" xmlns:xlink="http://www.w3.org/1999/xlink">
	<desc>
			Created with Pixso.
	</desc>
	<defs>
		<clipPath id="clip42_1107">
			<rect id="Frame" width="26.000000" height="26.000000" transform="translate(9.000000 9.000000)" fill="white" fill-opacity="0"/>
		</clipPath>
	</defs>
	<rect id="Social_icon" rx="22.000000" width="44.000000" height="44.000000" fill="#FCFCFC" fill-opacity="0.100000"/>
	<rect id="Frame" width="26.000000" height="26.000000" transform="translate(9.000000 9.000000)" fill="#FFFFFF" fill-opacity="0"/>
	<g clip-path="url(#clip42_1107)">
		<path id="Vector" d="M11.1714 21.6755C11.1682 21.7834 11.1666 21.8916 11.1666 22.0002C11.1666 22.1089 11.1682 22.217 11.1714 22.325C15.5601 22.3796 18.0273 22.6799 19.6739 24.3264C21.3204 25.9731 21.6205 28.4402 21.6753 32.8289C21.7831 32.832 21.8914 32.8337 22 32.8337C22.1085 32.8337 22.2168 32.832 22.3246 32.8289C22.3794 28.4402 22.6795 25.9731 24.326 24.3264C25.9727 22.6799 28.4398 22.3796 32.8286 22.325C32.8317 22.217 32.8333 22.1089 32.8333 22.0002C32.8333 21.8916 32.8317 21.7834 32.8286 21.6755C28.4398 21.6208 25.9727 21.3208 24.326 19.6741C22.6795 18.0276 22.3794 15.5605 22.3246 11.1719C22.2168 11.1687 22.1085 11.167 22 11.167C21.8914 11.167 21.7831 11.1687 21.6753 11.1719C21.6205 15.5605 21.3204 18.0276 19.6739 19.6741C18.0273 21.3208 15.5601 21.6208 11.1714 21.6755Z" fill="#FCFCFC" fill-opacity="1.000000" fill-rule="evenodd"/>
		<path id="Vector" d="M21.5544 9L21.5544 9.00562C21.6832 9.00195 21.8125 9 21.9422 9C22.0719 9 22.2013 9.00195 22.3301 9.00562L22.3301 9L21.9422 9L21.5544 9ZM9 21.5544L9.00571 21.5544C9.00192 21.6831 9 21.8125 9 21.9421L9 21.5544ZM9.00571 22.3301C9.00192 22.2012 9 22.072 9 21.9421L9 22.3301L9.00571 22.3301ZM21.5544 34.8787L21.5544 34.8845L21.9422 34.8845L22.3301 34.8845L22.3301 34.8787C22.2013 34.8826 22.0719 34.8845 21.9422 34.8845C21.8125 34.8845 21.6832 34.8826 21.5544 34.8787ZM34.8844 22.3301L34.8788 22.3301C34.8825 22.2012 34.8844 22.072 34.8844 21.9421L34.8844 22.3301ZM34.8844 21.5544L34.8844 21.9421C34.8844 21.8125 34.8825 21.6831 34.8788 21.5544L34.8844 21.5544Z" fill="#FCFCFC" fill-opacity="1.000000" fill-rule="evenodd"/>
	</g>
</svg>

<svg width="44" height="44" viewBox="0 0 44 44" fill="none" xmlns="http://www.w3.org/2000/svg"><defs><clipPath id="clip42_1107"><path id="Frame" transform="translate(9 9)" fill="#fff" fill-opacity="0" d="M0 0h26v26H0z"/></clipPath></defs><rect id="Social_icon" rx="22" width="44" height="44" fill="#FCFCFC" fill-opacity=".1"/><path id="Frame" transform="translate(9 9)" fill="#FFF" fill-opacity="0" d="M0 0h26v26H0z"/><g clip-path="url(#clip42_1107)" fill="#FCFCFC" fill-rule="evenodd"><path id="Vector" d="M11.171 21.675a10.951 10.951 0 000 .65c4.39.055 6.856.355 8.503 2.001 1.646 1.647 1.947 4.114 2.001 8.503a11.298 11.298 0 00.65 0c.054-4.389.355-6.856 2.001-8.503 1.647-1.646 4.114-1.946 8.503-2.001a11.31 11.31 0 000-.65c-4.39-.054-6.856-.354-8.503-2-1.646-1.647-1.947-4.115-2.001-8.503a10.944 10.944 0 00-.65 0c-.055 4.388-.355 6.856-2.001 8.502-1.647 1.647-4.114 1.947-8.503 2.002zM21.554 9v.006a13.616 13.616 0 01.776 0V9h-.776zM9 21.554h.006a12.6 12.6 0 00-.006.388v-.388zm.006.776A13.194 13.194 0 019 21.942v.388h.006zm12.548 12.55v.006h.776v-.006a12.821 12.821 0 01-.776 0zm13.33-12.549h-.005c.004-.129.005-.258.005-.388v.388zm0-.776v.388c0-.13-.002-.259-.005-.388h.005z"/></g></svg>
